X:1
T:Title
%%score 1 2 3 4
L:1/8
Q:1/4=95
M:4/4
K:Bb
V:1 treble nm="Church Organ, Church Organ"
V:2 treble nm="French Horn, French Horn"
V:3 bass nm="Trombone, Trombone"
V:4 bass nm="Tuba, Tuba"
V:1
 F2 F2 G>D F>B | A6 z2 | G3 G G2 G2 | F6 z2 | F2 F2 G>D F>B | A6 z2 | A3 G B2 =E2 | F6 z2 | %8
w: By~Ira~B.~Wilson * * * * *||||||||
 G2 G2 G>^F G>A | G6 z2 | F2 F2 F>=E F>G | F6 z2 | B>A B>c _d2 c>B | d2 f2 G2 e2 | d>F =E>F d2 c2 | %15
w: |||||||
 B6 z2 | e2 e2 e>G d>c | B4 F4 | G2 A2 B>A B>c | d6 z2 | d2 d2 e>d G>d | d4 c4 | c2 F2 e>d d>c | %23
w: ||||||||
 B6 z2 |] %24
w: |
V:2
 z8 | z8 | z8 | z8 | z8 | z8 | z8 | z8 | [A,E]2 [A,E]2 [A,E]2 [A,E]2 | [A,E]6 z2 | %10
 [B,D]2 [B,D]2 [B,D]2 [B,D]2 | [B,D]6 z2 | D2 D2 =E2 z2 | [FB]2 [FB]2 [B,E]2 [EG]2 | %14
 F>D _D>=D F2 E2 | D6 z2 | F2 F2 F>E F>E | D4 D4 | E2 F2 G>^F G>G | ^F6 z2 | F2 F2 G>F F>F | %21
 =E4 E4 | E2 E2 G>F F>E | D6 z2 |] %24
V:3
 B,,2 [B,D]2 D,2 [B,D]2 | C,2[K:treble] (3EEE E2 E2 | F,2 E2 F,2 E2 | B,,2 [B,D]2 [B,D]2 z2 | %4
w: An gels~ chant~ heav|song,~ * * * * *|"Peace~ * earth,~ good|will,"~ * *|
 B,,2 [B,D]2 D,2 [B,D]2 | C,2[K:treble] (3CCC C2 C2 | C,2 C2 C,2 C2 | F,2 C2 E2 z2 | %8
w: Hear~ the~ ech loud~|long~ * * * * *|On~ * mid night~|still;~ * *|
 C,2 F,2 F,,2 F,2 | C,2 F,2 F,,2 F,2 | B,,2 F,2 F,,2 F,2 | B,,2 F,2 B,2 _A,2 | G,2 B,2 ^F,2 z2 | %13
w: "Glo ry,~ glo hear~|say~ * * *|Christ~ the~ Lord~ born~|day,~ * * *|"Glo be~ God~|
 F,2 D,2 E,2 C,2 | F,2 B,2 F,2 F,2 | F,2 F,D, B,,2 z2 | A,2 A,2 A,2 A,2 | B,2 B,2 B,2 B,2 | %18
w: high est,~ glo ry!~|Peace~ earth,~ will~ to~|men."~ * * *|Un to~ us~ born~|Sa * viour,~ *|
 B,2 B,2 B,>B, B,>G, | A,6 z2 | =B,2 B,2 B,2 B,2 | C2 C2 B,2 B,2 | A,2 A,2 A,>A, A,>A, | B,6 z2 |] %24
w: Un to~ us~ is~ born~ a~|King;~|"Peace~ on~ earth,"~ chant~|cho * rus,~ *|Let~ the~ world~ with~ glad ness~|sing.~|
V:4
 B,,,2 F,2 D,,2 F,2 | C,,2 (3[F,A,][F,A,][F,A,] [F,A,]2 [F,A,]2 | F,,2 [F,A,]2 F,,2 [F,A,]2 | %3
 B,,,2 F,2 F,2 z2 | B,,,2 F,2 D,,2 F,2 | C,,2 (3[F,A,][F,A,][F,A,] [F,A,]2 [F,A,]2 | %6
 C,,2 [F,A,]2 C,,2 [G,B,]2 | F,,2 [F,A,]2 [F,A,C]2 z2 | z8 | z8 | z8 | z4 B,,2 _A,,2 | %12
 G,,2 G,2 ^F,,2 z2 | F,,2 D,,2 E,,2 C,,2 | F,,2 F,2 F,,2 F,,2 | z8 | F,2 F,2 F,2 F,2 | %17
 B,,2 B,,2 B,,2 B,,2 | E,2 E,2 E,>E, E,>E, | D,6 z2 | G,2 G,2 G,2 G,2 | C,2 C,2 C,2 C,2 | %22
 F,2 F,2 F,>F, F,>F, | B,,6 z2 |] %24

